X:1
T:Title
L:1/8
M:4/4
K:G
V:1 treble nm="Grand Piano"
V:1
 z4 z[Q:1/4=100] DB,D | G3 G B2 A2 | F4- FB,AG | E3 G F2 D2 | C4- CD_B,D | B,3 G B3 A | %6
 F3 B, cBA^D | E6 z2 |] %8

